ArtShop/Content/Images/sa-logo.svg

<?xml version="1.0" encoding="UTF-8"?>
<svg width="192px" height="30px" viewBox="0 0 192 30" version="1.1" xmlns="http://www.w3.org/2000/svg" xmlns:xlink="http://www.w3.org/1999/xlink">
    <!-- Generator: Sketch 39 (31667) - http://www.bohemiancoding.com/sketch -->
    <title>Group 3</title>
    <desc>Created with Sketch.</desc>
    <defs></defs>
    <g id="Page-1" stroke="none" stroke-width="1" fill="none" fill-rule="evenodd">
        <g id="Group-3">
            <g id="sa-logo" transform="translate(35.000000, 5.000000)" fill="#000000">
                <g id="Group">
                    <g>
                        <path d="M0,20.2222222 L8.45841387,0.233333333 L17.2453098,20.2222222 L13.1392837,20.2222222 L11.0041501,15.0111111 L3.9417851,15.0111111 L1.80665151,20.2222222 L0,20.2222222 L0,20.2222222 Z M4.43450824,13.7666667 L10.4293064,13.7666667 L7.39084707,6.61111111 L4.43450824,13.7666667 L4.43450824,13.7666667 Z" id="Shape"></path>
                        <path d="M19.791046,20.2222222 L19.791046,0.622222222 L25.2931211,0.622222222 C27.8388573,0.622222222 29.8097498,1.08888889 31.1236782,2.1 C32.4376066,3.03333333 33.0945708,4.51111111 33.0945708,6.37777778 C33.0945708,7.77777778 32.6018476,8.86666667 31.6985219,9.72222222 C30.7951961,10.5 29.4812677,10.9666667 27.7567368,11.0444444 L33.1766913,20.2222222 L28.9064241,20.2222222 L23.404349,10.3444444 C25.5394826,10.1888889 27.0997726,9.8 28.0030983,9.17777778 C28.9064241,8.55555556 29.3170267,7.54444444 29.3170267,6.22222222 C29.3170267,4.74444444 28.9064241,3.65555556 28.0030983,2.95555556 C27.0997726,2.25555556 25.7858442,1.86666667 23.9791927,1.86666667 L23.7328311,1.86666667 L23.7328311,20.2222222 L19.791046,20.2222222 L19.791046,20.2222222 Z" id="Shape"></path>
                        <polygon id="Shape" points="40.8138999 20.2222222 37.0363559 20.2222222 37.0363559 0.622222222 40.8138999 0.622222222"></polygon>
                        <path d="M43.3596361,20.2222222 L51.9001705,0.233333333 L60.6870665,20.2222222 L56.5810403,20.2222222 L54.4459067,15.0111111 L47.3014212,15.0111111 L45.2484082,20.2222222 L43.3596361,20.2222222 L43.3596361,20.2222222 Z M47.8762649,13.7666667 L53.8710631,13.7666667 L50.9147242,6.61111111 L47.8762649,13.7666667 L47.8762649,13.7666667 Z" id="Shape"></path>
                        <path d="M81.5456793,20.2222222 L90.0040932,0.311111111 L98.8731096,20.2222222 L94.7670835,20.2222222 L92.6319499,15.0111111 L85.4874644,15.0111111 L83.3523308,20.2222222 L81.5456793,20.2222222 L81.5456793,20.2222222 Z M86.0623081,13.7666667 L92.0571062,13.7666667 L89.0186469,6.61111111 L86.0623081,13.7666667 L86.0623081,13.7666667 Z" id="Shape"></path>
                        <g id="Group-2" transform="translate(107.593987, 0.000000)">
                            <path d="M2.84217094e-14,20.6111111 L8.45841387,0.7 L17.2453098,20.6111111 L13.1392837,20.6111111 L11.0041501,15.4 L3.9417851,15.4 L1.80665151,20.6111111 L2.84217094e-14,20.6111111 L2.84217094e-14,20.6111111 Z M4.43450824,14.1555556 L10.4293064,14.1555556 L7.47296759,7 L4.43450824,14.1555556 L4.43450824,14.1555556 Z" id="Shape"></path>
                            <path d="M19.791046,20.6111111 L19.791046,1.08888889 L25.2931211,1.08888889 C27.8388573,1.08888889 29.8097498,1.55555556 31.1236782,2.56666667 C32.4376066,3.5 33.0945708,4.97777778 33.0945708,6.84444444 C33.0945708,8.24444444 32.6018476,9.33333333 31.6985219,10.1888889 C30.7951961,10.9666667 29.4812677,11.4333333 27.7567368,11.5111111 L33.2588118,20.6888889 L28.9885446,20.6888889 L23.4864696,10.8111111 C25.6216032,10.6555556 27.1818931,10.2666667 28.0852189,9.64444444 C28.9885446,9.02222222 29.3991472,8.01111111 29.3991472,6.68888889 C29.3991472,5.21111111 28.9885446,4.12222222 28.0852189,3.42222222 C27.1818931,2.72222222 25.8679647,2.33333333 24.0613132,2.33333333 L23.8149517,2.33333333 L23.8149517,20.6111111 L19.791046,20.6111111 L19.791046,20.6111111 Z" id="Shape"></path>
                            <polygon id="Shape" points="39.25361 20.6111111 39.25361 2.48888889 33.8336555 2.48888889 33.8336555 1.01111111 48.4511085 1.01111111 48.4511085 2.48888889 43.031154 2.48888889 43.031154 20.6111111"></polygon>
                        </g>
                        <polygon id="Shape" points="63.1506822 20.2222222 63.1506822 0.622222222 77.2754121 13.7666667 77.2754121 0.622222222 79.1641841 0.622222222 79.1641841 20.2222222 64.9573337 7.07777778 64.9573337 20.2222222"></polygon>
                    </g>
                </g>
            </g>
            <g id="color-palette">
                <g id="Layer_1">
                    <path d="M15,0 C6.71572266,0 0,6.71572266 0,15 C0,23.2842773 6.71572266,30 15,30 C23.2842773,30 30,23.2842773 30,15 C30,6.71572266 23.2842773,0 15,0 L15,0 Z M15,19.7368359 C12.3839063,19.7368359 10.2631641,17.6160938 10.2631641,15 C10.2631641,12.3839063 12.3839063,10.2631641 15,10.2631641 C17.6160937,10.2631641 19.7368359,12.3839063 19.7368359,15 C19.7368359,17.6160938 17.6160938,19.7368359 15,19.7368359 L15,19.7368359 Z" id="Shape" fill="#D8D8DA"></path>
                    <path d="M16.5789258,11.0526562 L29.4740039,11.0526562 C28.4232422,7.19097656 25.8695508,3.94886719 22.4789063,1.99476562 L13.4210742,11.0526562 L16.5789258,11.0526562 L16.5789258,11.0526562 Z" id="Shape" fill="#D4B6E6"></path>
                    <path d="M13.4210742,11.0526563 L22.4788477,1.99476562 C20.2774219,0.725976563 17.7235547,0 15,0 C13.6336523,0 12.3106055,0.183691406 11.0526563,0.526054687 L11.0526563,13.4210742 L13.4210742,11.0526563 L13.4210742,11.0526563 Z" id="Shape" fill="#EBAFD1"></path>
                    <path d="M11.0526562,13.4210742 L11.0526562,0.526054687 C7.19097656,1.57675781 3.94886719,4.13044922 1.99482422,7.52109375 L11.0525977,16.5789844 L11.0525977,13.4210742 L11.0526562,13.4210742 Z" id="Shape" fill="#E07188"></path>
                    <g id="Group" transform="translate(11.015625, 11.015625)" fill="#D8D8DA">
                        <polygon id="Shape" points="0.03703125 2.40544922 2.40544922 0.0370898437 5.56330078 0.0370898437 5.56330078 0.03703125 2.40544922 0.03703125"></polygon>
                        <polygon id="Shape" points="2.40544922 7.93166016 0.03703125 5.56330078 2.40544922 7.93171875 5.56330078 7.93171875 7.93171875 5.56330078 5.56330078 7.93166016"></polygon>
                    </g>
                    <path d="M29.4740625,11.0526562 L16.5789258,11.0526562 L16.5789258,11.0527148 L16.6350586,11.0527148 L18.9473437,13.4210742 L28.0051758,22.4789062 C29.274082,20.2774219 30,17.7235547 30,15 C30,13.6336523 29.8163086,12.3104883 29.4740625,11.0526562 L29.4740625,11.0526562 Z" id="Shape" fill="#B4D8F1"></path>
                    <path d="M18.9473438,16.5789258 L18.9473438,29.4739453 C22.8089648,28.4232422 26.0511328,25.8694336 28.0051172,22.4789063 L18.9473438,13.4210742 L18.9473438,16.5789258 L18.9473438,16.5789258 Z" id="Shape" fill="#ACFFF4"></path>
                    <path d="M16.5789258,18.9473437 L7.52115234,28.0052344 C9.72257813,29.2740234 12.2764453,30 15,30 C16.3663477,30 17.6893945,29.8163086 18.9473438,29.4740039 L18.9473438,16.5789258 L16.5789258,18.9473437 L16.5789258,18.9473437 Z" id="Shape" fill="#95D5A7"></path>
                    <path d="M13.4210742,18.9473438 L0.5259375,18.9473438 C1.57675781,22.8090234 4.13044922,26.0511328 7.52109375,28.0052344 L16.5789844,18.9473438 L13.4210742,18.9473438 L13.4210742,18.9473438 Z" id="Shape" fill="#F8E99B"></path>
                    <path d="M11.0526563,16.5789258 L1.99482422,7.52109375 C0.725917969,9.72257813 0,12.2764453 0,15 C0,16.3663477 0.183691406,17.6895117 0.5259375,18.9473438 L13.4210156,18.9473438 L11.0526563,16.5789258 L11.0526563,16.5789258 Z" id="Shape" fill="#EFC27B"></path>
                    <polygon id="Shape" fill="#D8D8DA" points="16.6350586 11.0527148 16.5789258 11.0527148 18.9473437 13.4210742"></polygon>
                    <path d="M29.4740625,11.0526562 C28.4232422,7.19097656 25.8695508,3.94886719 22.4789062,1.99476562 L15,9.47367187 L15,11.0525977 L16.5789258,11.0525977 L29.4740625,11.0525977 L29.4740625,11.0526562 Z" id="Shape" fill="#B681D5"></path>
                    <path d="M22.4788477,1.99476562 C20.2774219,0.725976563 17.7235547,0 15,0 L15,9.47367188 L22.4788477,1.99476562 L22.4788477,1.99476562 Z" id="Shape" fill="#E592BF"></path>
                    <path d="M15,20.5263281 L15,30 C16.3663477,30 17.6893945,29.8163086 18.9473438,29.4740039 L18.9473438,16.5789258 L16.5789258,18.9473437 L15,20.5263281 L15,20.5263281 Z" id="Shape" fill="#80CB93"></path>
                    <polygon id="Shape" fill="#F6E27D" points="16.5789258 18.9473438 15 18.9473438 15 20.5263281"></polygon>
                </g>
            </g>
        </g>
    </g>
</svg>

<?xml version="1.0" encoding="utf-8"?>
<!-- Generator: Adobe Illustrator 21.0.0, SVG Export Plug-In . SVG Version: 6.00 Build 0)  -->
<svg version="1.1" id="Layer_1" xmlns="http://www.w3.org/2000/svg" xmlns:xlink="http://www.w3.org/1999/xlink" x="0px" y="0px"
	 viewBox="0 0 192 30" style="enable-background:new 0 0 192 30;" xml:space="preserve">
<style type="text/css">
	.st0{fill:#77787B;}
	.st1{fill:#D8D8DA;}
	.st2{fill:#D4B6E6;}
	.st3{fill:#EBAFD1;}
	.st4{fill:#E07188;}
	.st5{fill:#B4D8F1;}
	.st6{fill:#ACFFF4;}
	.st7{fill:#95D5A7;}
	.st8{fill:#F8E99B;}
	.st9{fill:#EFC27B;}
	.st10{fill:#B681D5;}
	.st11{fill:#E592BF;}
	.st12{fill:#80CB93;}
	.st13{fill:#F6E27D;}
</style>
<title>Group 3</title>
<desc>Created with Sketch.</desc>
<g id="Page-1">
	<g id="Group-3">
		<g id="sa-logo" transform="translate(35.000000, 5.000000)">
			<g id="Group">
				<g>
					<path id="Shape" class="st0" d="M0,20.2l8.5-20l8.8,20h-4.1L11,15H3.9l-2.1,5.2H0L0,20.2z M4.4,13.8h6l-3-7.2L4.4,13.8
						L4.4,13.8z"/>
					<path id="Shape_1_" class="st0" d="M19.8,20.2V0.6h5.5c2.5,0,4.5,0.5,5.8,1.5c1.3,0.9,2,2.4,2,4.3c0,1.4-0.5,2.5-1.4,3.3
						c-0.9,0.8-2.2,1.2-3.9,1.3l5.4,9.2h-4.3l-5.5-9.9c2.1-0.2,3.7-0.5,4.6-1.2c0.9-0.6,1.3-1.6,1.3-3c0-1.5-0.4-2.6-1.3-3.3
						c-0.9-0.7-2.2-1.1-4-1.1h-0.2v18.4H19.8L19.8,20.2z"/>
					<polygon id="Shape_2_" class="st0" points="40.8,20.2 37,20.2 37,0.6 40.8,0.6 					"/>
					<path id="Shape_3_" class="st0" d="M43.4,20.2l8.5-20l8.8,20h-4.1L54.4,15h-7.1l-2.1,5.2H43.4L43.4,20.2z M47.9,13.8h6l-3-7.2
						L47.9,13.8L47.9,13.8z"/>
					<path id="Shape_4_" class="st0" d="M81.5,20.2L90,0.3l8.9,19.9h-4.1L92.6,15h-7.1l-2.1,5.2H81.5L81.5,20.2z M86.1,13.8h6
						l-3-7.2L86.1,13.8L86.1,13.8z"/>
					<g id="Group-2" transform="translate(107.593987, 0.000000)">
						<path id="Shape_5_" class="st0" d="M-3.3,20.6L5.2,0.7L14,20.6H9.9l-2.1-5.2H0.7l-2.1,5.2H-3.3L-3.3,20.6z M1.2,14.1h6L4.2,7
							L1.2,14.1L1.2,14.1z"/>
						<path id="Shape_6_" class="st0" d="M16.5,20.6V1H22c2.5,0,4.5,0.5,5.8,1.5c1.3,0.9,2,2.4,2,4.3c0,1.4-0.5,2.5-1.4,3.3
							c-0.9,0.8-2.2,1.2-3.9,1.3l5.5,9.2h-4.3l-5.5-9.9c2.1-0.2,3.7-0.5,4.6-1.2s1.3-1.6,1.3-3c0-1.5-0.4-2.6-1.3-3.3
							s-2.2-1.1-4-1.1h-0.2v18.3H16.5L16.5,20.6z"/>
						<polygon id="Shape_7_" class="st0" points="36,20.6 36,2.5 30.6,2.5 30.6,1 45.2,1 45.2,2.5 39.8,2.5 39.8,20.6 						"/>
					</g>
					<polygon id="Shape_8_" class="st0" points="63.2,20.2 63.2,0.6 77.3,13.8 77.3,0.6 79.2,0.6 79.2,20.2 65,7.1 65,20.2 					"/>
				</g>
			</g>
		</g>
		<g id="color-palette">
			<g id="Layer_1_1_">
				<path id="Shape_9_" class="st1" d="M15,0C6.7,0,0,6.7,0,15s6.7,15,15,15s15-6.7,15-15S23.3,0,15,0L15,0z M15,19.7
					c-2.6,0-4.7-2.1-4.7-4.7s2.1-4.7,4.7-4.7s4.7,2.1,4.7,4.7S17.6,19.7,15,19.7L15,19.7z"/>
				<path id="Shape_10_" class="st2" d="M16.6,11.1h12.9c-1.1-3.9-3.6-7.1-7-9.1l-9.1,9.1H16.6L16.6,11.1z"/>
				<path id="Shape_11_" class="st3" d="M13.4,11.1L22.5,2c-2.2-1.3-4.8-2-7.5-2c-1.4,0-2.7,0.2-3.9,0.5v12.9L13.4,11.1L13.4,11.1z"
					/>
				<path id="Shape_12_" class="st4" d="M11.1,13.4V0.5C7.2,1.6,3.9,4.1,2,7.5l9.1,9.1L11.1,13.4L11.1,13.4z"/>
				<g id="Group_1_" transform="translate(11.015625, 11.015625)">
					<polygon id="Shape_13_" class="st1" points="0,2.4 2.4,0 5.6,0 5.6,0 2.4,0 					"/>
					<polygon id="Shape_14_" class="st1" points="2.4,7.9 0,5.6 2.4,7.9 5.6,7.9 7.9,5.6 5.6,7.9 					"/>
				</g>
				<path id="Shape_15_" class="st5" d="M29.5,11.1H16.6v0h0.1l2.3,2.4l9.1,9.1c1.3-2.2,2-4.8,2-7.5C30,13.6,29.8,12.3,29.5,11.1
					L29.5,11.1z"/>
				<path id="Shape_16_" class="st6" d="M18.9,16.6v12.9c3.9-1.1,7.1-3.6,9.1-7l-9.1-9.1V16.6L18.9,16.6z"/>
				<path id="Shape_17_" class="st7" d="M16.6,18.9L7.5,28c2.2,1.3,4.8,2,7.5,2c1.4,0,2.7-0.2,3.9-0.5V16.6L16.6,18.9L16.6,18.9z"/>
				<path id="Shape_18_" class="st8" d="M13.4,18.9H0.5c1.1,3.9,3.6,7.1,7,9.1l9.1-9.1H13.4L13.4,18.9z"/>
				<path id="Shape_19_" class="st9" d="M11.1,16.6L2,7.5C0.7,9.7,0,12.3,0,15c0,1.4,0.2,2.7,0.5,3.9h12.9L11.1,16.6L11.1,16.6z"/>
				<polygon id="Shape_20_" class="st1" points="16.6,11.1 16.6,11.1 18.9,13.4 				"/>
				<path id="Shape_21_" class="st10" d="M29.5,11.1c-1.1-3.9-3.6-7.1-7-9.1L15,9.5v1.6h1.6L29.5,11.1L29.5,11.1z"/>
				<path id="Shape_22_" class="st11" d="M22.5,2c-2.2-1.3-4.8-2-7.5-2v9.5L22.5,2L22.5,2z"/>
				<path id="Shape_23_" class="st12" d="M15,20.5V30c1.4,0,2.7-0.2,3.9-0.5V16.6l-2.4,2.4L15,20.5L15,20.5z"/>
				<polygon id="Shape_24_" class="st13" points="16.6,18.9 15,18.9 15,20.5 				"/>
			</g>
		</g>
	</g>
</g>
</svg>
